X:1
T:As pants the hart for cooling streams
T:John Broderip (of Wells)
T:Text: Nahum Tate/Nicholas Brady, on Ps. 42
T:Edition released into the public domain, April 2010. As such, it may be freely copied and performed.
T:As pants the hart for cooling streams
T:Psalm the 42d. New Ver.
C:John Broderip
C:(of Wells)
Z:Text: Nahum Tate/Nicholas Brady,
Z:on Ps. 42
%%score [ 1 2 3 4 ]
L:1/8
M:3/2
K:C
V:1 treble nm="Soprano" snm="S."
V:2 treble nm="Alto" snm="A."
V:3 treble-8 transpose=-12 nm="Tenor" snm="T."
V:4 bass nm="Bass" snm="B."
V:1
 A4 | A8 (A2 B2) | ^G8 A4 | G8 F4 | E8 c4 | (B4 A4) e4 | (d4 c4) (c2 d2) | B8 A4 | A8 (A2 B2) | %9
w: Why|rest- less, _|why cast|down, my|soul? Trust|God, _ and|he’ll _ em- *|ploy His|aid for _|
w: As|pants the _|hart for|cool- ing|streams, When|heat- * ed|in _ the _|chase; So|longs my _|
w: For|thee, my _|God, the|liv- ing|God, My|thirs- * ty|soul _ doth _|pine: O|when shall _|
 ^G8 A4 | d8 F4 | E8 e4 | c8 d4 | c8 B4 | A8 |] %15
w: thee, and|change these|sighs To|thank- ful|hymns of|joy.|
w: soul, O|God, for|thee, And|thy re-|fresh- ing|grace.|
w: I be-|hold thy|face, Thou|Ma- je-|sty di-|vine?|
V:2
 E4 | E8 F4 | E8 E4 | D8 D4 | C8 E4 | (D4 C4) B,4 | A,8 F4 | E8 E4 | E8 F4 | E8 E4 | D8 D4 | %11
w: Why|rest- less,|why cast|down, my|soul? Trust|God, _ and|he’ll em-|ploy His|aid for|thee, and|change these|
w: As|pants the|hart for|cool- ing|streams, When|heat- * ed|in the|chase; So|longs my|soul, O|God, for|
w: For|thee, my|God, the|liv- ing|God, My|thirs- * ty|soul doth|pine: O|when shall|I be-|hold thy|
 C8 A4 | F8 F4 | E8 E4 | E8 |] %15
w: sighs To|thank- ful|hymns of|joy.|
w: thee, And|thy re-|fresh- ing|grace.|
w: face, Thou|Ma- je-|sty di-|vine?|
V:3
 c4 | c8 B4 | B8 c4 | d8 G4 | G8 E4 | F8 ^G4 | A8 A4 | ^G8 c4 | c8 B4 | B8 c4 | G8 G4 | G8 c4 | %12
w: Why|rest- less,|why cast|down, my|soul? Trust|God, and|he’ll em-|ploy His|aid for|thee, and|change these|sighs To|
w: As|pants the|hart for|cool- ing|streams, When|heat- ed|in the|chase; So|longs my|soul, O|God, for|thee, And|
w: For|thee, my|God, the|liv- ing|God, My|thirs- ty|soul doth|pine: O|when shall|I be-|hold thy|face, Thou|
 A8 B4 | A8 ^G4 | A8 |] %15
w: thank- ful|hymns of|joy.|
w: thy re-|fresh- ing|grace.|
w: Ma- je-|sty di-|vine?|
V:4
 A,4 | C,8 D,4 | E,8 A,,4 | B,,8 B,,4 | C,8 C,4 | D,8 E,4 | F,8 D,4 | E,8 A,4 | %8
w: Why|rest- less,|why cast|down, my|soul? Trust|God, and|he’ll em-|ploy His|
w: As|pants the|hart for|cool- ing|streams, When|heat- ed|in the|chase; So|
w: For|thee, my|God, the|liv- ing|God, My|thirs- ty|soul doth|pine: O|
"^Emendations: Clefs in the source are treble, alto, tenor and bass. The first verse only of the text is given in the source:verses 2, 5 and 11 have been added editorially." C,8 D,4 | %9
w: aid for|
w: longs my|
w: when shall|
 E,8 A,,4 | B,,8 B,,4 | C,8 C,4 | F,8 B,,4 | (C,4 D,4) E,4 | A,,8 |] %15
w: thee, and|change these|sighs To|thank- ful|hymns _ of|joy.|
w: soul, O|God, for|thee, And|thy re-|fresh- * ing|grace.|
w: I be-|hold thy|face, Thou|Ma- je-|sty _ di-|vine?|

